X:1
T:Title
%%score { ( 1 3 ) | ( 2 4 ) }
L:1/8
M:4/4
K:Bb
V:1 treble nm="Grand Piano"
V:3 treble 
V:2 bass 
V:4 bass 
V:1
 z4 z2[Q:1/4=100] [B,D][CE] | [DF]2 [DB]2 [DB]2 [Fd][Fd] | c2 G2 G2 [GB]2 | A3 G FBAB |[M:3/4] c6 | %5
[M:1/4] D[CE] |[M:4/4] [DF]2 [DB]2 [DB]2 [Fd][Fd] | c2 G2 G2 [GB]2 | A3 G FFGA |[M:3/4] [B,DB]6 | %10
[M:1/4] z2 |[M:4/4] B4 z2 .F2 | G4 B4 | A4 z4 | DDDD [DB]2 Bc | d6 z2 | c4 G2 z2 | AAAA G2 A2 | %18
[M:3/4] B6 |] %19
V:2
 z4 z2 [B,,F,][B,,F,] | [B,,B,]2 [B,,F,]2 [B,,F,]2 [B,,B,][B,,B,] | %2
 [E,G,E]2 [E,CE]2 [E,CE]2 [E,E]2 | [F,CF]3 [F,B,F] [F,A,][F,DF][F,CE][F,B,D] |[M:3/4] [F,A,F]6 | %5
[M:1/4] [B,,F,B,][B,,F,] |[M:4/4] [B,,B,]2 [B,,F,]2 [B,,F,]2 [B,,B,][B,,B,] | %7
 [E,G,E]2 [E,CE]2 [E,CE]2 [E,E]2 | [F,CF]3 [F,B,F] [F,A,][F,A,][F,CE][F,CE] |[M:3/4] B,,6 | %10
[M:1/4][K:treble] DF |[M:4/4][K:bass] [B,,F,][B,,F,][B,,F,][B,,F,] [B,,B,]2 [B,,B,]2 | %12
 [E,B,E][E,B,][E,B,][E,B,] [E,G,E]2 [E,G,]2 | [F,E]F,F,F, [F,A,E]2 [F,A,E]2 | %14
 [B,,B,][B,,B,][B,,B,][B,,B,] [B,,F,]2 z2 | z2 [B,,B,][B,,B,] [B,,B,][C,A,][D,B,][B,,B,] | %16
 [E,G,E][E,G,][E,G,][E,G,] [E,CE][E,C] [E,G,E]2 | [F,E][F,E][F,E][F,E] [F,A,E]2 [F,CE]2 | %18
[M:3/4] z2 G,G, F,2 |] %19
V:3
 x8 | x8 | x8 | x8 |[M:3/4] x6 |[M:1/4] x2 |[M:4/4] x8 | x8 | x8 |[M:3/4] x6 |[M:1/4] x2 | %11
[M:4/4] DDDD [DF]2 D-[DF] | z EEE z2 E2 | z EEE c2 AG | F4 z4 | z2 FF F[Fc][FB][Fd] | %16
 z EEE z E B2 | x8 |[M:3/4] [B,D]2 EE D2 |] %19
V:4
 x8 | x8 | x8 | x8 |[M:3/4] x6 |[M:1/4] x2 |[M:4/4] x8 | x8 | x8 |[M:3/4] x6 | %10
[M:1/4][K:treble] x2 |[M:4/4][K:bass] x8 | x8 | x8 | x8 | x8 | x8 | x8 |[M:3/4] B,,6 |] %19

